public/assets/mariadb.svg

<?xml version="1.0" encoding="UTF-8"?>
<svg width="512px" height="151px" viewBox="0 0 512 151" version="1.1" xmlns="http://www.w3.org/2000/svg" xmlns:xlink="http://www.w3.org/1999/xlink" preserveAspectRatio="xMidYMid">
    <g>
        <path d="M391.38251,77.7574419 C397.823849,77.7574419 403.051432,80.5074888 407.065007,86.0074686 L407.065007,78.7979903 L412.044681,78.7979903 L412.044681,118.264354 L407.065007,118.264354 L407.065007,111.500821 C402.555867,116.901738 397.402745,119.602203 391.605388,119.602203 C385.808157,119.602203 380.902692,117.545885 376.889117,113.433261 C372.925226,109.271093 370.943217,104.340899 370.943217,98.6426552 C370.943217,92.8949179 372.950004,87.9895028 376.963452,83.9263846 C380.977026,79.8137983 385.783379,77.7574419 391.38251,77.7574419 Z M301.496765,77.7574419 C307.93823,77.7574419 313.165687,80.5074888 317.179262,86.0074686 L317.179262,78.7979903 L322.159062,78.7979903 L322.159062,118.264354 L317.179262,118.264354 L317.179262,111.500821 C312.670248,116.901738 307.517,119.602203 301.719769,119.602203 C295.922412,119.602203 291.016947,117.545885 287.003499,113.433261 C283.039481,109.271093 281.057472,104.340899 281.057472,98.6426552 C281.057472,92.8949179 283.064259,87.9895028 287.077833,83.9263846 C291.091281,79.8137983 295.897634,77.7574419 301.496765,77.7574419 Z M434.468998,64.8992889 C442.050138,64.8992889 447.599586,65.4691638 451.117721,66.6087494 C454.685287,67.6988922 457.757287,69.4579093 460.333974,71.8858007 C462.910535,74.2642366 464.892544,77.1876681 466.279874,80.6560952 C467.667331,84.1246234 468.360996,88.187691 468.360996,92.8453361 C468.360996,97.4534878 467.270879,101.813857 465.09077,105.926468 C462.960092,109.989561 460.036635,113.061637 456.3204,115.142721 C452.653721,117.223818 447.35193,118.264354 440.415025,118.264354 L423.394628,118.264354 L423.394628,64.8992889 L434.468998,64.8992889 Z M361.34756,78.7979903 L361.34756,118.264354 L356.21909,118.264354 L356.21909,78.7979903 L361.34756,78.7979903 Z M221.625572,64.8992889 L243.328303,108.676477 L264.882492,64.8992889 L265.700049,64.8992889 L273.355523,118.264354 L268.07851,118.264354 L262.875705,80.0615052 L243.997317,118.264354 L242.659416,118.264354 L223.558024,79.7642038 L218.355345,118.264354 L213.226875,118.264354 L220.808015,64.8992889 L221.625572,64.8992889 Z M344.360375,77.7574419 C345.995488,77.7574419 347.630601,78.2034382 349.265714,79.095279 L346.59004,83.4061167 C345.846819,82.960209 345.078819,82.7372298 344.28604,82.7371919 C342.749914,82.7372298 341.288249,83.5300207 339.900792,85.1155773 C338.563018,86.7012096 337.572014,88.7575154 336.927905,91.2845199 C336.28367,93.762031 335.961679,98.2958352 335.961679,104.88592 L335.961679,118.264354 L330.758874,118.264354 L330.758874,78.7979903 L335.961679,78.7979903 L335.961679,84.5209746 C337.349009,82.1921837 338.68691,80.4827231 339.975127,79.3925803 C341.313027,78.3025386 342.774692,77.7574419 344.360375,77.7574419 Z M490.04385,64.8992889 C495.642981,64.8992889 499.879434,66.0389882 502.753334,68.3182099 C505.676791,70.5480015 507.138456,73.7687344 507.138456,77.9804085 C507.138456,80.3093005 506.543904,82.4647067 505.354673,84.4466524 C504.214999,86.37913 502.530329,87.9399462 500.300664,89.129101 C503.967343,90.3183316 506.74213,92.102127 508.625026,94.4804744 C510.557352,96.8588977 511.523704,99.6832288 511.523704,102.95348 C511.523704,107.363431 509.913243,111.03011 506.692573,113.953528 C503.471777,116.827416 499.30966,118.264354 494.206094,118.264354 L479.489697,118.264354 L479.489697,64.8992889 L490.04385,64.8992889 Z M391.679723,82.6628697 C387.319379,82.6628697 383.627922,84.2732677 380.605352,87.4939626 C377.582909,90.6651769 376.071561,94.4309558 376.071561,98.7913122 C376.071561,103.151706 377.607687,106.942251 380.679687,110.162971 C383.751814,113.33416 387.418492,114.919742 391.679723,114.919742 C395.99051,114.919742 399.681967,113.383717 402.754093,110.311616 C405.82622,107.239552 407.36222,103.374673 407.36222,98.7169774 C407.36222,94.2079893 405.850998,90.4174321 402.828428,87.3453183 C399.805858,84.2237238 396.089623,82.6628697 391.679723,82.6628697 Z M301.794104,82.6628697 C297.433634,82.6628697 293.742177,84.2732677 290.719734,87.4939626 C287.697164,90.6651769 286.185942,94.4309558 286.185942,98.7913122 C286.185942,103.151706 287.721942,106.942251 290.794069,110.162971 C293.866069,113.33416 297.532747,114.919742 301.794104,114.919742 C306.104891,114.919742 309.796348,113.383717 312.868474,110.311616 C315.940474,107.239552 317.476601,103.374673 317.476601,98.7169774 C317.476601,94.2079893 315.965253,90.4174321 312.942809,87.3453183 C309.920239,84.2237238 306.204004,82.6628697 301.794104,82.6628697 Z M432.313542,70.1020053 L428.522972,70.1020053 L428.522972,113.210281 L434.692003,113.210281 C441.133468,113.210281 445.791025,112.888214 448.665052,112.244068 C451.588382,111.599921 454.140165,110.336406 456.3204,108.453511 C458.500635,106.521084 460.160526,104.192242 461.3002,101.466999 C462.439748,98.7417809 463.009648,95.6201485 463.009648,92.1020891 C463.009648,88.5840928 462.340635,85.3385943 461.002861,82.3655684 C459.714517,79.3926309 457.8564,76.9399107 455.428508,75.0074331 C453.000617,73.0750439 450.126717,71.7867508 446.806934,71.1425536 C443.536582,70.4489011 438.705451,70.1020053 432.313542,70.1020053 Z M487.73985,92.5480347 L484.766837,92.5480347 L484.766837,113.061637 L491.381751,113.061637 C495.196972,113.061637 497.996538,112.690014 499.780321,111.946767 C501.61366,111.153976 503.10023,109.964783 504.239904,108.379176 C505.379451,106.74405 505.949352,105.084146 505.949352,103.399439 C505.949352,101.714756 505.627234,100.228275 504.983125,98.9399565 C504.33889,97.6516887 503.372664,96.5120399 502.084447,95.5210228 C500.84566,94.5300563 499.334438,93.7868093 497.550655,93.2912817 C495.816429,92.7958175 492.546077,92.5480347 487.73985,92.5480347 Z M490.935742,70.1020053 L484.766837,70.1020053 L484.766837,87.1966613 L487.814059,87.1966613 C492.471742,87.1966613 495.940194,86.4534522 498.219542,84.9669329 C500.498764,83.4804768 501.638438,81.1516353 501.638438,77.9804085 C501.638438,72.728186 498.070873,70.1020053 490.935742,70.1020053 Z M358.746095,63.5614392 C359.935325,63.5614392 360.92633,63.9826698 361.719108,64.824954 C362.561443,65.6178082 362.982673,66.6088 362.982673,67.7979421 C362.982673,68.9376415 362.561443,69.9286333 361.719108,70.7709301 C360.92633,71.5637716 359.935325,71.9601228 358.746095,71.9601228 C357.606547,71.9601228 356.615543,71.5389934 355.773208,70.696608 C354.980303,69.8543111 354.583977,68.8880849 354.583977,67.7979421 C354.583977,66.6583565 354.980303,65.6673647 355.773208,64.824954 C356.615543,63.9826698 357.606547,63.5614392 358.746095,63.5614392 Z" fill="#A57242" fill-rule="nonzero"></path>
        <path d="M222.340741,0.00397152498 C218.827447,0.116232266 219.938538,1.12853844 212.347044,2.99674427 C204.681026,4.8832936 195.31685,4.30480945 187.061728,7.76692817 C162.418726,18.101743 157.474437,53.4246735 135.071605,66.0780393 C118.326044,75.5367652 101.431321,76.2911751 86.2419753,81.0508788 C76.2598716,84.1810319 65.3403654,90.6003235 56.2962963,98.3940887 C49.2762074,104.445802 49.0929114,109.766822 41.7580247,117.357052 C33.9124148,125.475728 10.5762765,117.494242 0,129.920015 C3.40701235,133.364953 4.90067437,134.329864 11.6148148,133.436064 C10.2247411,136.070765 2.03054143,138.291101 3.6345679,142.166928 C5.32234746,146.245128 25.1324871,149.009701 43.1407407,138.137299 C51.5274272,133.073871 58.2074596,125.775672 71.2691358,124.033595 C88.1714568,121.780795 107.64264,125.478585 127.209877,128.300262 C124.308543,136.951165 118.48345,142.704212 113.817284,149.594089 C112.372306,151.150316 116.719553,151.324762 121.679012,150.384212 C130.600454,148.178187 137.02986,146.40199 143.762963,142.482978 C152.034607,137.667649 153.288072,125.322141 163.437037,122.650879 C169.091793,131.342237 184.471426,133.395306 194.014815,126.443471 C185.64077,124.073101 183.326366,106.248548 186.153086,98.3940887 C188.830657,90.959343 191.476344,79.0664047 194.17284,69.2385331 C197.067852,58.6837479 198.135884,45.3804077 201.639506,40.0039652 C206.910767,31.9150099 212.735305,29.1372393 217.792057,24.5759514 C222.848796,20.0146635 227.47734,15.5746121 227.325446,5.13744787 C227.276522,1.7756938 225.538326,-0.0982135614 222.340741,0.00397152498 L222.340741,0.00397152498 Z" fill="#002B64"></path>
        <path d="M215.447072,6.20596027 C216.291556,9.08453804 217.612642,10.4056245 223.324286,10.934059 C222.489916,18.1753825 217.659417,22.1361134 212.243595,25.9362911 C207.47757,29.2788294 202.256435,32.4974763 198.901254,37.7186121 C195.463901,43.0674319 193.281896,61.3730121 187.95204,79.4510368 C183.345304,95.0714615 176.388425,110.516163 164.239486,117.283412 C162.970232,114.088785 164.401304,108.192568 161.876701,106.254553 C160.243358,110.913121 158.396365,115.358039 156.233323,119.489437 C149.104514,133.114958 138.549728,143.317032 120.911644,146.432015 C129.280632,135.107333 137.283002,123.412242 137.456198,103.893032 C131.566301,105.167343 131.691457,119.079837 125.639743,122.799106 C121.759921,123.221348 117.829531,123.21882 113.873857,122.98115 C97.6289185,122.007718 80.9642667,117.125387 65.7673481,122.001397 C55.4198914,125.322444 46.9573531,133.156676 38.1952,136.956854 C27.8970469,141.423264 20.0982123,143.260143 7.27419259,141.423264 C5.64590617,139.229881 16.6595951,136.399343 16.0009481,131.637111 C10.982084,131.082128 8.06810864,132.298286 3.70536296,130.316024 C4.18702222,129.428558 4.89497284,128.689002 5.7862321,128.073338 C13.7822815,122.538681 36.4948543,126.766158 42.573116,120.797881 C46.3252543,117.116538 48.7866469,113.263264 51.3352691,109.517447 C53.8067753,105.882879 56.3617185,102.349447 60.2541827,99.1649331 C61.6915753,97.9892294 63.2541235,96.8274319 64.9127506,95.6934467 C71.5459951,91.1537134 79.7519012,87.036222 87.8275951,84.1980985 C98.828642,80.3309183 109.976336,80.0123405 121.701768,75.5320245 C128.94562,72.7634319 136.822835,69.3437775 143.243694,64.5587899 C144.768316,63.4210121 146.210765,62.2086467 147.544494,60.9090516 C165.879151,43.0358269 169.513719,11.5080047 198.118716,8.57000965 C201.57756,8.21477014 204.409363,8.32981212 206.987062,8.25143187 C209.957926,8.16293804 212.587457,7.81781212 215.447072,6.20596027 Z M180.57527,107.112892 C180.916603,112.576754 184.088475,123.417248 186.888672,126.051836 C181.404584,127.385564 171.957235,125.182068 169.533769,121.313623 C170.779003,115.728399 177.25928,110.622305 180.57527,107.112892 Z" fill="#C49A6C" fill-rule="nonzero"></path>
        <path d="M216.84004,12.2250323 C215.762944,14.4841533 213.701038,17.3968644 213.701038,23.1476989 C213.692188,24.1350372 212.951369,24.8113829 212.938727,23.2892891 C212.994351,17.6686668 214.482312,15.2388792 216.062559,12.0455162 C216.797058,10.7370718 217.239527,11.2768841 216.84004,12.2250323 Z M215.755359,11.3742273 C214.48484,13.5296841 211.425482,17.4613384 210.919803,23.1906816 C210.826253,24.1729631 210.02728,24.7810421 210.148643,23.2627409 C210.699833,17.669931 213.144791,14.1693681 215.000633,11.1264446 C215.842588,9.88879523 216.238282,10.4652693 215.755359,11.3742273 Z M214.766756,10.2465631 C213.31925,12.2869779 208.610114,17.0087557 207.625304,22.6761533 C207.448317,23.6457928 206.601304,24.1868693 206.850351,22.6837384 C207.869295,17.1554026 211.928633,12.8103557 214.033522,9.93683473 C214.976613,8.77250881 215.321739,9.38058782 214.766756,10.2465631 Z M213.884346,8.98868659 L213.408121,9.49522682 C211.30253,11.752654 206.411009,17.2586676 204.78086,22.2981582 C204.467339,23.2336644 203.553324,23.6508495 204.012228,22.1970224 C205.797275,16.8671656 210.713739,11.1264446 213.20168,8.57782239 C214.300267,7.55761498 214.555635,8.20867671 213.884346,8.98868659 Z M188.609245,20.3993335 C189.700248,15.7129533 193.344929,13.5777236 199.63684,14.098573 C201.155142,21.0933779 192.65847,23.9150668 188.609245,20.3993335 Z" fill="#002B64"></path>
    </g>
</svg>

<svg width="512" height="151" xmlns="http://www.w3.org/2000/svg" preserveAspectRatio="xMidYMid"><path d="M391.383 77.757c6.44 0 11.668 2.75 15.682 8.25v-7.209h4.98v39.466h-4.98v-6.763c-4.51 5.4-9.662 8.101-15.46 8.101-5.797 0-10.702-2.056-14.716-6.169-3.964-4.162-5.946-9.092-5.946-14.79 0-5.748 2.007-10.653 6.02-14.717 4.014-4.112 8.82-6.169 14.42-6.169Zm-89.886 0c6.441 0 11.669 2.75 15.682 8.25v-7.209h4.98v39.466h-4.98v-6.763c-4.509 5.4-9.662 8.101-15.46 8.101-5.797 0-10.702-2.056-14.716-6.169-3.964-4.162-5.946-9.092-5.946-14.79 0-5.748 2.007-10.653 6.02-14.717 4.014-4.112 8.82-6.169 14.42-6.169ZM434.469 64.9c7.581 0 13.13.57 16.649 1.71 3.567 1.09 6.64 2.849 9.216 5.277 2.577 2.378 4.559 5.302 5.946 8.77 1.387 3.469 2.081 7.532 2.081 12.19 0 4.607-1.09 8.968-3.27 13.08-2.13 4.064-5.054 7.136-8.77 9.217-3.667 2.08-8.97 3.121-15.906 3.121h-17.02V64.9h11.074Zm-73.121 13.899v39.466h-5.129V78.798h5.129ZM221.626 64.899l21.702 43.777L264.882 64.9h.818l7.656 53.365h-5.277l-5.203-38.202-18.879 38.202h-1.338l-19.101-38.5-5.203 38.5h-5.128l7.581-53.365h.818ZM344.36 77.757c1.635 0 3.27.446 4.906 1.338l-2.676 4.311c-.743-.446-1.511-.669-2.304-.669-1.536 0-2.998.793-4.385 2.379-1.338 1.585-2.329 3.642-2.973 6.169-.644 2.477-.966 7.01-.966 13.6v13.38h-5.203V78.797h5.203v5.723c1.387-2.329 2.725-4.038 4.013-5.128 1.338-1.09 2.8-1.636 4.385-1.636ZM490.044 64.9c5.599 0 9.835 1.14 12.71 3.42 2.923 2.229 4.384 5.45 4.384 9.661a12.34 12.34 0 0 1-1.783 6.467c-1.14 1.932-2.825 3.493-5.054 4.682 3.666 1.19 6.441 2.973 8.324 5.351 1.932 2.379 2.899 5.203 2.899 8.473 0 4.41-1.61 8.077-4.831 11-3.221 2.874-7.383 4.311-12.487 4.311H479.49V64.9h10.554ZM391.68 82.663c-4.36 0-8.052 1.61-11.075 4.831-3.022 3.171-4.533 6.937-4.533 11.297s1.536 8.151 4.608 11.372c3.072 3.171 6.738 4.757 11 4.757 4.31 0 8.002-1.536 11.074-4.608 3.072-3.072 4.608-6.937 4.608-11.595 0-4.509-1.511-8.3-4.534-11.372-3.022-3.121-6.738-4.682-11.148-4.682Zm-89.886 0c-4.36 0-8.052 1.61-11.074 4.831-3.023 3.171-4.534 6.937-4.534 11.297s1.536 8.151 4.608 11.372c3.072 3.171 6.739 4.757 11 4.757 4.31 0 8.002-1.536 11.074-4.608 3.072-3.072 4.609-6.937 4.609-11.595 0-4.509-1.512-8.3-4.534-11.372-3.023-3.121-6.739-4.682-11.149-4.682Zm130.52-12.561h-3.791v43.108h6.169c6.441 0 11.099-.322 13.973-.966 2.923-.644 5.475-1.908 7.655-3.79 2.18-1.933 3.84-4.262 4.98-6.987 1.14-2.725 1.71-5.847 1.71-9.365s-.67-6.763-2.007-9.736c-1.288-2.973-3.147-5.426-5.574-7.359-2.428-1.932-5.302-3.22-8.622-3.864-3.27-.694-8.102-1.041-14.493-1.041Zm55.426 22.446h-2.973v20.514h6.615c3.815 0 6.615-.372 8.398-1.115 1.834-.793 3.32-1.982 4.46-3.568 1.14-1.635 1.71-3.295 1.71-4.98 0-1.684-.323-3.17-.967-4.459-.644-1.288-1.61-2.428-2.899-3.419-1.238-.99-2.75-1.734-4.533-2.23-1.735-.495-5.005-.743-9.811-.743Zm3.196-22.446h-6.17v17.095h3.048c4.658 0 8.126-.744 10.406-2.23 2.279-1.487 3.418-3.815 3.418-6.987 0-5.252-3.567-7.878-10.702-7.878Zm-132.19-6.54c1.19 0 2.18.42 2.973 1.263.842.793 1.264 1.784 1.264 2.973 0 1.14-.422 2.13-1.264 2.973-.793.793-1.784 1.19-2.973 1.19-1.14 0-2.13-.422-2.973-1.264-.793-.843-1.189-1.809-1.189-2.9 0-1.139.396-2.13 1.19-2.972.842-.842 1.833-1.264 2.972-1.264Z" fill="#A57242"/><path d="M222.34.004c-3.513.112-2.401 1.125-9.993 2.993-7.666 1.886-17.03 1.308-25.285 4.77-24.643 10.335-29.588 45.658-51.99 58.311-16.746 9.459-33.64 10.213-48.83 14.973-9.982 3.13-20.902 9.55-29.946 17.343-7.02 6.052-7.203 11.373-14.538 18.963-7.846 8.119-31.182.137-41.758 12.563 3.407 3.445 4.9 4.41 11.615 3.516-1.39 2.635-9.584 4.855-7.98 8.73 1.687 4.08 21.497 6.844 39.506-4.029 8.386-5.063 15.066-12.361 28.128-14.103 16.902-2.253 36.374 1.445 55.94 4.266-2.9 8.651-8.726 14.404-13.392 21.294-1.445 1.556 2.903 1.73 7.862.79 8.921-2.206 15.35-3.982 22.084-7.901 8.272-4.815 9.525-17.16 19.674-19.832 5.655 8.691 21.034 10.744 30.578 3.792-8.374-2.37-10.689-20.194-7.862-28.049 2.678-7.435 5.323-19.328 8.02-29.155 2.895-10.555 3.963-23.859 7.467-29.235 5.27-8.089 11.095-10.867 16.152-15.428s9.685-9.001 9.533-19.439c-.048-3.361-1.787-5.235-4.984-5.133Z" fill="#002B64"/><path d="M215.447 6.206c.845 2.879 2.166 4.2 7.877 4.728-.834 7.241-5.665 11.202-11.08 15.002-4.766 3.343-9.988 6.561-13.343 11.783-3.437 5.348-5.62 23.654-10.949 41.732-4.607 15.62-11.564 31.065-23.713 37.832-1.269-3.194.162-9.09-2.362-11.028-1.634 4.658-3.48 9.103-5.644 13.234-7.128 13.626-17.683 23.828-35.321 26.943 8.369-11.325 16.371-23.02 16.544-42.539-5.89 1.274-5.765 15.187-11.816 18.906-3.88.422-7.81.42-11.766.182-16.245-.973-32.91-5.856-48.107-.98-10.347 3.321-18.81 11.156-27.572 14.956-10.298 4.466-18.097 6.303-30.92 4.466-1.63-2.193 9.385-5.024 8.726-9.786-5.019-.555-7.933.661-12.296-1.321.482-.887 1.19-1.627 2.081-2.243 7.996-5.534 30.709-1.307 36.787-7.275 3.752-3.681 6.214-7.535 8.762-11.28 2.472-3.635 5.027-7.169 8.92-10.353 1.437-1.176 3-2.338 4.658-3.472 6.633-4.54 14.839-8.657 22.915-11.495 11-3.867 22.148-4.186 33.874-8.666 7.244-2.769 15.12-6.188 21.542-10.973a43.002 43.002 0 0 0 4.3-3.65c18.335-17.873 21.97-49.401 50.575-52.339 3.459-.355 6.29-.24 8.868-.319 2.97-.088 5.6-.433 8.46-2.045Zm-34.872 100.907c.342 5.464 3.513 16.304 6.314 18.939-5.484 1.334-14.932-.87-17.355-4.738 1.245-5.586 7.725-10.692 11.041-14.201Z" fill="#C49A6C"/><path d="M216.84 12.225c-1.077 2.26-3.139 5.172-3.139 10.923-.009.987-.75 1.663-.762.141.055-5.62 1.543-8.05 3.124-11.243.734-1.309 1.177-.77.777.179Zm-1.085-.85c-1.27 2.155-4.33 6.086-4.835 11.816-.094.982-.893 1.59-.771.072.55-5.593 2.996-9.094 4.852-12.137.842-1.237 1.237-.66.754.248Zm-.988-1.128c-1.448 2.04-6.157 6.762-7.142 12.43-.177.969-1.024 1.51-.775.007 1.02-5.529 5.079-9.874 7.184-12.747.943-1.164 1.288-.556.733.31Zm-.883-1.258-.476.506c-2.105 2.258-6.997 7.764-8.627 12.803-.314.936-1.228 1.353-.769-.101 1.785-5.33 6.702-11.07 9.19-13.62 1.098-1.02 1.354-.368.682.412Zm-25.275 11.41c1.091-4.686 4.736-6.821 11.028-6.3 1.518 6.994-6.979 9.816-11.028 6.3Z" fill="#002B64"/></svg>
